X: 11
T:Boy in the Baskett,The. BF14.10
T:Long Room At Scarborough(). BF14.10
M:9/8
L:1/8
Q:120
C:Long Room At Scarborough()
S:MS14,Browne "D",early 19thC,Troutbeck,W'morland
R:Slip Jig
O:England
A:Lakes
N:The time signature is given as 6/8,exactly as it is in BF13. Bears a
N:resemblance to Long Room At Scarborough.CGP
Z:vmp.Chris Partington
K:G major
GAG BAG Bdg|GAG Bcd AED|!
GAG BAG Bdg|ece dBG AFD:|!
|:gag gdB gdB|aba afd "NB"afd|!
gag gdB efg|ege dBG AFD:|]
